packages/webapp/public/images/template-logos/linear.svg

<svg width="62" height="62" viewBox="0 0 62 62" fill="none" xmlns="http://www.w3.org/2000/svg">
<g clip-path="url(#clip0_496_1183)">
<path d="M45.344 47.7191C45.784 47.3671 46.136 47.0151 46.488 46.5751C55.112 37.9511 55.112 24.0471 46.488 15.4231C37.864 6.79908 23.96 6.79908 15.336 15.4231C14.984 15.8631 14.632 16.2151 14.28 16.6551L45.344 47.7191Z" fill="#5E6AD2"/>
<path d="M42.7039 49.6549L12.3439 19.2949C11.7279 20.2629 11.1999 21.2309 10.7599 22.2869L39.7119 51.2389C40.7679 50.7989 41.7359 50.2709 42.7039 49.6549Z" fill="#5E6AD2"/>
<path d="M36.368 52.3829L9.616 25.6309C9.264 26.9509 9.088 28.2709 9 29.5909L32.408 52.9989C33.728 52.9109 35.048 52.7349 36.368 52.3829Z" fill="#5E6AD2"/>
<path d="M27.568 52.8236L9.17603 34.4316C9.88003 38.9196 11.904 43.1436 15.336 46.6636C18.856 50.0076 23.168 52.1196 27.568 52.8236Z" fill="#5E6AD2"/>
</g>
<defs>
<clipPath id="clip0_496_1183">
<rect width="44" height="44" fill="white" transform="translate(9 9)"/>
</clipPath>
</defs>
</svg>

<svg xmlns="http://www.w3.org/2000/svg" width="62" height="62" fill="none"><g clip-path="url(#A)" fill="#5e6ad2"><path d="M45.344 47.719c.44-.352.792-.704 1.144-1.144a21.99 21.99 0 0 0 0-31.152 21.99 21.99 0 0 0-31.152 0l-1.056 1.232 31.064 31.064zm-2.64 1.935l-30.36-30.36c-.616.968-1.144 1.936-1.584 2.992l28.952 28.952c1.056-.44 2.024-.968 2.992-1.584zm-6.336 2.729L9.616 25.631c-.352 1.32-.528 2.64-.616 3.96l23.408 23.408c1.32-.088 2.64-.264 3.96-.616zm-8.8.441L9.176 34.432c.704 4.488 2.728 8.712 6.16 12.232 3.52 3.344 7.832 5.456 12.232 6.16z"/></g><defs><clipPath id="A"><path fill="#fff" transform="translate(9 9)" d="M0 0h44v44H0z"/></clipPath></defs></svg>
